svg/fluentui-system-icons/ic_fluent_flowchart_circle_20_filled.svg

<svg width="20" height="20" viewBox="0 0 20 20" fill="none" xmlns="http://www.w3.org/2000/svg">
<path d="M2 10C2 5.58172 5.58172 2 10 2C14.4183 2 18 5.58172 18 10C18 14.4183 14.4183 18 10 18C5.58172 18 2 14.4183 2 10ZM6 6.5V8.5C6 8.77614 6.22386 9 6.5 9H7V10.7929L5.64645 12.1464C5.45118 12.3417 5.45118 12.6583 5.64645 12.8536L7.14645 14.3536C7.34171 14.5488 7.65829 14.5488 7.85355 14.3536L9.20711 13H11V13.5C11 13.7761 11.2239 14 11.5 14H13.5C13.7761 14 14 13.7761 14 13.5V11.5C14 11.2239 13.7761 11 13.5 11H11.5C11.2239 11 11 11.2239 11 11.5V12H9.20711L8 10.7929V9H8.5C8.77614 9 9 8.77614 9 8.5V6.5C9 6.22386 8.77614 6 8.5 6H6.5C6.22386 6 6 6.22386 6 6.5Z" fill="#212121"/>
</svg>

<svg xmlns="http://www.w3.org/2000/svg" width="20" height="20"><path d="M2 10a8 8 0 1 1 16 0 8 8 0 0 1-16 0Zm4-3.5v2a.5.5 0 0 0 .5.5H7v1.793l-1.354 1.353a.5.5 0 0 0 0 .708l1.5 1.5a.5.5 0 0 0 .708 0L9.207 13H11v.5a.5.5 0 0 0 .5.5h2a.5.5 0 0 0 .5-.5v-2a.5.5 0 0 0-.5-.5h-2a.5.5 0 0 0-.5.5v.5H9.207L8 10.793V9h.5a.5.5 0 0 0 .5-.5v-2a.5.5 0 0 0-.5-.5h-2a.5.5 0 0 0-.5.5Z"/></svg>
